X:1
T:THE WEIRD JIG
M:C
L:1/8
Q:80
C:Williamson
S:Jig
K:HP
{g}AdfaAa | \
eg{a}fd{e}A{d}A | \
{g}AdfaAa |
eg{a}f{g}ea{a}a | \
{g}AdfaAa | \
eg{a}fd{e}A{d}A |
aAag{a}Gg | \
{a}eg{a}fad{c}d :: \
aAag{a}Gg |
{a}Aa{a}a{a}aAa | \
g{a}GgaAa | \
Gg{f}g{a}gGg |
aAag{a}Gg | \
{a}Aa{a}a{a}aAa | \
g{a}GgaAa |
{a}eg{a}fad{c}d :: \
{g}AdfaAa | \
GBdg{a}Gg |
{g}AdfaAa | \
eg{a}f{g}ea{a}a | \
{g}AdfaAa |
GBdg{a}Gg | \
aAag{a}Gg | \
{a}eg{a}fad{c}d ::
aAag{a}Gg | \
{a}Adf{g}Aa{a}a | \
g{a}ggaAa |
GBd{g}Gg{f}g | \
aAag{a}Gg | \
{a}Aa{a}a{a}aAa |
g{a}GgaAa | \
{a}eg{a}fad{c}d :|
